component-icons/svg/calendar.svg

<?xml version="1.0" encoding="utf-8"?>
<!-- Generator: Adobe Illustrator 24.2.3, SVG Export Plug-In . SVG Version: 6.00 Build 0)  -->
<svg version="1.1" id="Layer_1" xmlns="http://www.w3.org/2000/svg" xmlns:xlink="http://www.w3.org/1999/xlink" x="0px" y="0px"
	 width="24px" height="24px" viewBox="0 0 24 24" enable-background="new 0 0 24 24" xml:space="preserve">
<path d="M14,1h-4v2h4V1z M17,0h-2v4h2V0z M9,0H7v4h2V0z M11,10h4v2h-2l-2,2v2l2,2h2l2-2h-4v-2h2l2-2v-2l-2-2h-2L11,10z M18,1v2h4
	l2-2H18z M20,19.2L17.2,22H4V5H2v19h16l4-4V5h-2V19.2z M9,8l-2,2v8h2V8z M6,1H0v2h6V1z"/>
</svg>

<svg id="Layer_1" data-name="Layer 1" xmlns="http://www.w3.org/2000/svg" viewBox="0 0 24 24">
  <defs>
    <style>
      .cls-1 {
        fill: gray;
      }
    </style>
  </defs>
  <title>calendar</title>
  <path class="cls-1" d="M14,1H10V3h4Zm3-1H15V4h2ZM9,0H7V4H9Zm2,10h4v2H13l-2,2v2l2,2h2l2-2H13V14h2l2-2V10L15,8H13Zm7-9V3h4l2-2Zm2,18.17L17.17,22H4V5H2V24H18l4-4V5H20ZM9,8,7,10v8H9ZM6,1H0V3H6Z"/>
</svg>
